packages/foundations/assets/icons/functional/images/audio & video/subtitles_12.svg

<svg width="12" height="12" viewBox="0 0 12 12" fill="none" xmlns="http://www.w3.org/2000/svg">
<g clip-path="url(#clip0_231_100)">
<path fill-rule="evenodd" clip-rule="evenodd" d="M9.61202 2.38795C9.77028 2.38742 9.92708 2.4182 10.0734 2.47852C10.2197 2.53884 10.3526 2.6275 10.4646 2.73941C10.5765 2.85132 10.6651 2.98426 10.7254 3.13057C10.7858 3.27689 10.8165 3.43369 10.816 3.59195V8.40795C10.8165 8.56621 10.7858 8.72301 10.7254 8.86932C10.6651 9.01564 10.5765 9.14857 10.4646 9.26048C10.3526 9.37239 10.2197 9.46105 10.0734 9.52137C9.92708 9.58169 9.77028 9.61247 9.61202 9.61195H2.38802C2.06935 9.60985 1.76432 9.48233 1.53898 9.25699C1.31364 9.03164 1.18612 8.72662 1.18402 8.40795V3.59195C1.18402 2.93395 1.73002 2.38795 2.38802 2.38795H9.61202ZM9.61202 3.59195H2.38802V8.40795H9.61202V3.59195ZM3.59202 7.80595V6.60195H6.00002V7.80595H3.59202ZM7.20402 7.80595V6.60195H8.40802V7.80595H7.20402Z" fill="#1A1C1F"/>
</g>
<defs>
<clipPath id="clip0_231_100">
<rect width="12" height="12" fill="white"/>
</clipPath>
</defs>
</svg>

<svg xmlns="http://www.w3.org/2000/svg" width="12" height="12" fill="none"><g clip-path="url(#a)"><path fill="#1A1C1F" fill-rule="evenodd" d="M9.612 2.388a1.2 1.2 0 0 1 1.204 1.204v4.816a1.2 1.2 0 0 1-1.204 1.204H2.388a1.21 1.21 0 0 1-1.204-1.204V3.592c0-.658.546-1.204 1.204-1.204zm0 1.204H2.388v4.816h7.224zm-6.02 4.214V6.602H6v1.204zm3.612 0V6.602h1.204v1.204z" clip-rule="evenodd"/></g><defs><clipPath id="a"><path fill="#fff" d="M0 0h12v12H0z"/></clipPath></defs></svg>
